X:34
T:Go Lie Down
C:Brian Pickell
D:Brian Pickell:Fresh Canadian Fiddle Tunes
R:jig
M:6/8
L:1/8
Z:Robin Beech robin.beech@mcgill.ca
K:A
Ace aba | geg fdf | ecA EAc | edc BAG | FAd EAc |
BAG AE=G | FAd fga |1 cdB A2 B :|2 cdB A2=G
K:D
FGF EFE | DFA dFA | d2 d ede | fed AFA | gfe BeB |
fed AFA | GAB edB |1 ABA A2A :|2 ABc d3 |]
